svg/Frame-1261156734.svg

<svg width="133" height="88" viewBox="0 0 133 88" fill="none" xmlns="http://www.w3.org/2000/svg"><rect x="0.5" y="0.5" width="132" height="87" rx="11.5" stroke="#FF8D28"/><rect x="48.5" y="10" width="36" height="36" rx="12" fill="#B9A5FF"/><path d="M66.3626 39.7984C66.211 39.7999 66.0588 39.7446 65.944 39.6321C65.7143 39.407 65.7104 39.0279 65.9355 38.7982L68.3364 36.3476C68.5615 36.1179 68.9405 36.114 69.1703 36.3391C69.4 36.5642 69.4039 36.9433 69.1788 37.173L66.7778 39.6236C66.6653 39.7384 66.5142 39.7968 66.3626 39.7984ZM75.5538 30.4173C75.4022 30.4189 75.25 30.3636 75.1352 30.251C74.9054 30.0259 74.9016 29.6469 75.1267 29.4171L77.4713 27.024C77.6964 26.7943 78.0754 26.7904 78.3052 27.0155C78.5349 27.2406 78.5388 27.6197 78.3137 27.8494L75.969 30.2425C75.8756 30.3762 75.7054 30.4158 75.5538 30.4173ZM68.7271 30.051C68.5755 30.0525 68.4233 29.9972 68.3085 29.8847L65.7239 27.3333C65.4942 27.1082 65.4903 26.7291 65.7154 26.4994C65.9405 26.2697 66.3195 26.2658 66.5492 26.4909L69.1338 29.0423C69.3635 29.2674 69.3674 29.6464 69.1423 29.8762C69.0298 29.991 68.8787 30.0494 68.7271 30.051ZM78.1076 39.2428C77.956 39.2443 77.8038 39.189 77.6889 39.0764L74.9705 36.4127C74.7408 36.1876 74.7369 35.8086 74.962 35.5788C75.1871 35.3491 75.5661 35.3452 75.7958 35.5703L78.5143 38.2341C78.744 38.4592 78.7478 38.8382 78.5228 39.0679C78.3911 39.164 78.2592 39.2412 78.1076 39.2428Z" fill="#A079FF" fill-opacity="0.736806"/><path d="M61.9802 50.1713C58.1443 50.1713 55.0391 47.0478 55.0391 43.2302C55.0391 39.4126 58.1626 36.2891 61.9802 36.2891C65.7978 36.2891 68.9212 39.4126 68.9212 43.2302C68.9212 47.0478 65.7978 50.1713 61.9802 50.1713ZM63.1126 28.9462C60.1718 28.9462 57.779 26.5533 57.779 23.6125C57.779 20.6717 60.1718 18.2788 63.1126 18.2788C66.0535 18.2788 68.4463 20.6717 68.4463 23.6125C68.4463 26.5533 66.0535 28.9462 63.1126 28.9462ZM81.3787 46.3172C78.657 46.3172 76.4468 44.107 76.4468 41.3853C76.4468 38.6637 78.657 36.4535 81.3787 36.4535C84.1003 36.4535 86.3105 38.6637 86.3105 41.3853C86.3105 44.107 84.1003 46.3172 81.3787 46.3172ZM80.3923 28.9827C78.1091 28.9827 76.2459 27.1196 76.2459 24.8363C76.2459 22.5531 78.1091 20.6899 80.3923 20.6899C82.6756 20.6899 84.5387 22.5531 84.5387 24.8363C84.5387 27.1196 82.6938 28.9827 80.3923 28.9827Z" fill="#7954E2"/><circle cx="71.8857" cy="32.4639" r="4.90918" fill="#7954E2"/><path d="M65.7 67.424L65.94 68.896L64.436 69.136V73.6H62.9V69.392L58.084 70.16L57.86 68.688L62.9 67.872V58.944H64.436V67.632L65.7 67.424ZM59.636 59.76C60.724 60.528 61.652 61.312 62.404 62.08L61.364 63.136C60.692 62.4 59.764 61.632 58.564 60.8L59.636 59.76ZM59.156 63.44C60.276 64.24 61.22 65.056 61.988 65.872L60.9 66.944C60.228 66.192 59.3 65.376 58.084 64.48L59.156 63.44ZM51.46 63.072H53.956V61.072C53.236 61.168 52.5 61.264 51.764 61.328L51.476 59.904C53.54 59.744 55.38 59.424 57.012 58.944L57.54 60.368C56.884 60.544 56.196 60.704 55.492 60.832V63.072H57.54V64.528H55.492V65.152C56.34 65.792 57.204 66.528 58.084 67.36L57.236 68.656C56.548 67.808 55.972 67.12 55.492 66.608V73.6H53.956V66.704C53.364 68.112 52.596 69.408 51.636 70.56L50.964 68.864C52.244 67.584 53.188 66.144 53.78 64.528H51.46V63.072ZM69.06 73.472H67.7L67.38 72.048C67.796 72.112 68.18 72.144 68.548 72.144C68.932 72.144 69.124 71.92 69.124 71.488V68.096C68.548 68.32 67.956 68.544 67.38 68.736L66.996 67.232C67.716 67.072 68.42 66.864 69.124 66.608V63.152H67.316V61.696H69.124V58.896H70.596V61.696H72.164V63.152H70.596V66C71.14 65.744 71.668 65.472 72.196 65.184V66.672C71.668 66.96 71.14 67.216 70.596 67.472V71.872C70.596 72.928 70.084 73.472 69.06 73.472ZM72.612 61.072H76.356V58.928H77.828V61.072H81.572V62.528H77.828V64.816H80.964V66.16C80.452 67.824 79.604 69.264 78.388 70.464C79.38 71.2 80.596 71.856 82.02 72.416L81.236 73.664C79.7 72.992 78.404 72.224 77.348 71.392C76.132 72.336 74.66 73.104 72.932 73.712L72.212 72.448C73.812 71.936 75.172 71.28 76.276 70.448C75.028 69.2 74.196 67.808 73.764 66.24H72.932V64.816H76.356V62.528H72.612V61.072ZM75.188 66.24C75.572 67.488 76.276 68.592 77.316 69.568C78.276 68.608 78.996 67.504 79.476 66.24H75.188Z" fill="#18181B"/><defs><clipPath id="clip0_1970_14250"><rect x="48.5" y="10" width="36" height="36" rx="12" fill="white"/></clipPath></defs></svg>

<svg fill="none" viewBox="0 0 133 88"><rect width="132" height="87" x=".5" y=".5" stroke="#FF8D28" rx="11.5"/><rect width="36" height="36" x="48.5" y="10" fill="#B9A5FF" rx="12"/><path fill="#A079FF" fill-opacity=".737" d="M66.363 39.798a.6.6 0 0 1-.419-.166.595.595 0 0 1-.008-.834l2.4-2.45a.595.595 0 0 1 .834-.009c.23.225.234.604.009.834l-2.401 2.45a.6.6 0 0 1-.415.175m9.19-9.38a.59.59 0 0 1-.418-.167.595.595 0 0 1-.008-.834l2.344-2.393a.595.595 0 0 1 .834-.009c.23.226.234.605.009.834l-2.345 2.393c-.093.134-.264.174-.415.175m-6.826-.367a.6.6 0 0 1-.419-.166l-2.584-2.552a.595.595 0 0 1-.009-.834.595.595 0 0 1 .834-.008l2.585 2.551c.23.225.233.604.008.834a.6.6 0 0 1-.415.175m9.38 9.192a.6.6 0 0 1-.418-.167l-2.718-2.663a.595.595 0 0 1-.009-.834.595.595 0 0 1 .834-.009l2.718 2.664c.23.225.234.604.009.834-.132.096-.264.173-.415.175"/><path fill="#7954E2" d="M61.98 50.171c-3.836 0-6.94-3.123-6.94-6.94s3.123-6.942 6.94-6.942 6.941 3.124 6.941 6.941c0 3.818-3.123 6.941-6.94 6.941m1.133-21.225a5.34 5.34 0 0 1-5.334-5.334 5.34 5.34 0 0 1 5.334-5.333 5.34 5.34 0 0 1 5.333 5.334 5.34 5.34 0 0 1-5.333 5.333m18.266 17.371a4.935 4.935 0 0 1-4.932-4.932 4.935 4.935 0 0 1 4.932-4.931 4.935 4.935 0 0 1 4.932 4.931 4.935 4.935 0 0 1-4.932 4.932m-.987-17.334a4.155 4.155 0 0 1-4.146-4.147 4.155 4.155 0 0 1 4.146-4.146 4.155 4.155 0 0 1 4.147 4.146 4.143 4.143 0 0 1-4.147 4.147"/><circle cx="71.886" cy="32.464" r="4.909" fill="#7954E2"/><path fill="#18181B" d="m65.7 67.424.24 1.472-1.504.24V73.6H62.9v-4.208l-4.816.768-.224-1.472 5.04-.816v-8.928h1.536v8.688zm-6.064-7.664c1.088.768 2.016 1.552 2.768 2.32l-1.04 1.056c-.672-.736-1.6-1.504-2.8-2.336zm-.48 3.68c1.12.8 2.064 1.616 2.832 2.432L60.9 66.944c-.672-.752-1.6-1.568-2.816-2.464zm-7.696-.368h2.496v-2c-.72.096-1.456.192-2.192.256l-.288-1.424c2.064-.16 3.904-.48 5.536-.96l.528 1.424c-.656.176-1.344.336-2.048.464v2.24h2.048v1.456h-2.048v.624q1.272.96 2.592 2.208l-.848 1.296c-.688-.848-1.264-1.536-1.744-2.048V73.6h-1.536v-6.896a15.2 15.2 0 0 1-2.32 3.856l-.672-1.696c1.28-1.28 2.224-2.72 2.816-4.336h-2.32zm17.6 10.4H67.7l-.32-1.424c.416.064.8.096 1.168.096.384 0 .576-.224.576-.656v-3.392c-.576.224-1.168.448-1.744.64l-.384-1.504c.72-.16 1.424-.368 2.128-.624v-3.456h-1.808v-1.456h1.808v-2.8h1.472v2.8h1.568v1.456h-1.568V66a30 30 0 0 0 1.6-.816v1.488a30 30 0 0 1-1.6.8v4.4c0 1.056-.512 1.6-1.536 1.6m3.552-12.4h3.744v-2.144h1.472v2.144h3.744v1.456h-3.744v2.288h3.136v1.344c-.512 1.664-1.36 3.104-2.576 4.304.992.736 2.208 1.392 3.632 1.952l-.784 1.248c-1.536-.672-2.832-1.44-3.888-2.272-1.216.944-2.688 1.712-4.416 2.32l-.72-1.264c1.6-.512 2.96-1.168 4.064-2-1.248-1.248-2.08-2.64-2.512-4.208h-.832v-1.424h3.424v-2.288h-3.744zm2.576 5.168c.384 1.248 1.088 2.352 2.128 3.328a9.3 9.3 0 0 0 2.16-3.328z"/></svg>
